dist/img/svg/lightning.svg

<svg width="13" height="17" viewBox="0 0 13 17" fill="none" xmlns="http://www.w3.org/2000/svg">
<path d="M0.235176 10.3989H5.146C5.3318 10.3989 5.43322 10.5719 5.35465 10.7544L2.81576 16.6433C2.68247 16.9522 3.04445 17.1343 3.28417 16.879L12.9008 6.63174C13.082 6.43856 13.0024 6.16695 12.7645 6.16695H6.65265C6.43017 6.16695 6.34118 5.92557 6.49191 5.73078L10.5876 0.436161C10.7383 0.241371 10.6493 0 10.4268 0H4.5948C4.45851 0 4.32061 0.0951767 4.26269 0.22907L0.0269254 10.0438C-0.0518449 10.2263 0.0495744 10.3993 0.235376 10.3993L0.235176 10.3989Z" fill="currentColor"/>
</svg>

<svg width="13" height="17" viewBox="0 0 13 17" fill="none" xmlns="http://www.w3.org/2000/svg"><path d="M.235 10.399h4.911c.186 0 .287.173.209.355l-2.54 5.89c-.133.308.23.49.47.235L12.9 6.632c.181-.193.101-.465-.136-.465H6.652c-.223 0-.312-.241-.161-.436L10.588.436c.15-.195.061-.436-.161-.436H4.595a.38.38 0 00-.332.23L.027 10.043c-.079.182.023.355.208.355z" fill="currentColor"/></svg>
